X:1
T:Nec te pinguis ager
T:Daniel Friderici
T:Source : Bicinia sacra---Rostock---J.Richelius---1642. Editor : André Vierendeels (09/07/17).
T:Notes : Original clefs : C1, C1 Editorial accidentals above the staff Original note values have been quartered in 3-beat measures Dotted brackets indicate black notes m 18 in S 1 : "F" not dotted in original print
T:Nec te pinguis ager
T:©
T:©
C:Daniel Friderici
Z:©
%%score [ 1 2 ]
L:1/8
Q:1/4=120
M:2/2
K:F
V:1 treble nm="Soprano 1" snm="S 1"
V:2 treble nm="Soprano 2" snm="S 2"
V:1
 z8 | z4 G4- | G4 A4 | B8- | B4 c4 | d8 | d4 A4 | B4 G4 | B4 c4 | d4 z2 c2 | B2 c2 d2 e2 | %11
w: |Nec|_ te|pin-|* guis|a-|ger, nec|te pin-|guis a-|ger nec|bos, _ _ _|
 f4 z2 c2 | B2 c2 d2 e2 | f4 F4 | F2 G2 A2 B2 | c4 z2 G2 | A2 B2 c2 Bc | d2 cd ec f2- | f4 z2 c2 | %19
w: _ nec|bos, _ _ _|_ nec|bos, _ _ _|_ nec|bos, _ _ _ _|_ _ _ _ _ _|* nec|
 d4 c3 A | B2 AG A2 GF | G2 FE F2 ED | EF G4 ^F2 | G8 ::[M:6/4] G3 G B2 A2 G4 | ^F4 F2 G2 G2 A2 | %26
w: Spon- sa re-|tar- * * * * *|||det:|Cae- na De- i hu-|ma- nis, Cae- na De-|
 =B2 c4 d4 d2 | f3 e d2 c2 B2 A2 | GF GA B2 B3 c B2 | A2 G2 ^F2 G6 :| %30
w: i hu- ma- nis|an- te fe- ren- da bo-|* * * * nis, an- te fe-|ren- da bo- nis.|
V:2
 G8 | A4 B4- | B4 c4 | d8 | d4 A4 | B4 G4 | B4 c4 | d8 | z4 A4 | B2 c2 d2 e2 | f4 z2 c2 | %11
w: Nec|te pin-|* guis|a-|ger, nec|te pin-|guis a-|ger,|nec|bos, _ _ _|_ nec|
 B2 c2 d2 e2 | f4 z2 c2 | F2 G2 A2 B2 | c4 z2 G2 | F2 G2 A2 B2 | c2 d2 e2 de | f4 z2 c2 | %18
w: bos, _ _ _|_ nec|bos, _ _ _|_ nec|bos, _ _ _|_ _ _ _ _|* nec|
 d4 c2 A2 | B2 AG A2 GF | G2 FE F2 ED | E2 DC D2 EF | GABG A4 | G8 ::[M:6/4] d2 d2 d2 c2 B4 | %25
w: Spon- sa re-|tar- * * * * *||||det:|Cae- na De- i hu-|
 A4 A2 =B2 B2 c2 |"^b" d2 c4 B4 B2 | B3 c B2 A2 G2 ^F2 | GA Bc d2 f3 e d2 | c2 B2 A2 G6 :| %30
w: ma- nis, Cae- na De-|i hu- ma- nis|an- te fe- ren- da bo-|* * * * nis, an- te fe-|ren- da bo- nis.|

